packages/landing-ui/public/feature-domain.svg

<svg width="75" height="75" viewBox="0 0 75 75" fill="none" xmlns="http://www.w3.org/2000/svg">
<path d="M69.7721 56.5672C69.8594 56.4651 69.927 56.3477 69.9715 56.221C73.2654 50.5317 75 44.0741 75 37.5001C75 30.9261 73.2654 24.4685 69.9715 18.7792C69.927 18.6525 69.8594 18.5351 69.7721 18.433C64.9006 10.2178 57.0895 4.16055 47.9202 1.48748C47.8269 1.44494 47.728 1.41575 47.6266 1.40077C41.0047 -0.466923 33.9953 -0.466923 27.3734 1.40077C27.2735 1.41494 27.176 1.44262 27.0836 1.48305C17.9119 4.15595 10.0991 10.2151 5.22788 18.433C5.14056 18.5351 5.07296 18.6525 5.02851 18.7792C1.73455 24.4685 0 30.9261 0 37.5001C0 44.0741 1.73455 50.5317 5.02851 56.221C5.07296 56.3477 5.14056 56.4651 5.22788 56.5672C10.0954 64.7789 17.9001 70.8353 27.0633 73.5114C27.1601 73.5547 27.2626 73.5839 27.3677 73.5982C33.9916 75.4669 41.0033 75.4669 47.6272 73.5982C47.7377 73.5843 47.8454 73.5537 47.9468 73.5076C57.1054 70.8299 64.906 64.7752 69.7721 56.5672ZM38.6076 72.757V56.9621H53.7424C52.0968 62.9811 49.7291 67.9823 46.8494 71.519C44.1609 72.2571 41.3942 72.6726 38.6076 72.757ZM28.1506 71.5178C25.2709 67.9823 22.9032 62.9817 21.2576 56.9608H36.3924V72.7558C33.6058 72.6714 30.8391 72.2558 28.1506 71.5178ZM2.24307 38.6064H7.12028V47.3102C7.12045 47.6039 7.2372 47.8855 7.44487 48.0932C7.65255 48.3009 7.93418 48.4176 8.22788 48.4178H17.288C17.5817 50.5843 17.9627 52.7026 18.4272 54.7469H6.73421C3.95425 49.8094 2.41316 44.2714 2.24307 38.6077V38.6064ZM6.73674 20.252H18.4279C17.9627 22.2963 17.5817 24.4153 17.2886 26.5811H8.22788C8.08234 26.5812 7.93825 26.6099 7.80382 26.6657C7.6694 26.7215 7.54728 26.8032 7.44443 26.9062C7.34158 27.0091 7.26002 27.1313 7.2044 27.2658C7.14878 27.4003 7.1202 27.5444 7.12028 27.69V36.3925H2.24307C2.41316 30.7288 3.95425 25.1908 6.73421 20.2533L6.73674 20.252ZM36.3924 2.24317V18.0381H21.2576C22.9032 12.0191 25.2709 7.01785 28.1506 3.48115C30.8391 2.74313 33.6058 2.32755 36.3924 2.24317ZM46.8494 3.48241C49.7291 7.01785 52.0968 12.0185 53.7424 18.0394H38.6076V2.24317C41.3943 2.32797 44.161 2.74397 46.8494 3.48241ZM72.7569 36.3938H67.8797V27.69C67.8795 27.3963 67.7628 27.1147 67.5551 26.907C67.3474 26.6993 67.0658 26.5826 66.7721 26.5824H57.712C57.4183 24.4159 57.0373 22.2976 56.5728 20.2533H68.2658C71.0458 25.1908 72.5868 30.7288 72.7569 36.3925V36.3938ZM68.2633 54.7482H56.5721C57.0373 52.7039 57.4183 50.5849 57.7114 48.4191H66.7721C66.9177 48.419 67.0618 48.3902 67.1962 48.3345C67.3306 48.2787 67.4527 48.197 67.5556 48.094C67.6584 47.9911 67.74 47.8688 67.7956 47.7344C67.8512 47.5999 67.8798 47.4557 67.8797 47.3102V38.6077H72.7569C72.5868 44.2714 71.0458 49.8094 68.2658 54.7469L68.2633 54.7482ZM38.6051 54.7482V48.4191H55.4747C55.1715 50.5906 54.7785 52.7096 54.2962 54.7482H38.6051ZM9.33547 46.2026V28.7976H65.6645V46.2026H9.33547ZM55.4747 26.5824H38.6076V20.2533H54.2981C54.7785 22.2913 55.1728 24.4109 55.4747 26.5824ZM36.3905 20.2533V26.5824H19.5253C19.8285 24.4109 20.2215 22.2919 20.7038 20.2533H36.3905ZM19.5253 48.4178H36.3924V54.7469H20.7019C20.2215 52.7083 19.8272 50.5893 19.5253 48.4178ZM50.4468 70.3165C52.9896 66.1811 54.875 61.676 56.0354 56.9621H66.9145C62.9141 62.9876 57.1675 67.6464 50.4449 70.314L50.4468 70.3165ZM66.9145 18.0381H56.0335C54.8724 13.3244 52.9872 8.81937 50.4449 4.68368C57.167 7.35263 62.9128 12.0122 66.9126 18.0381H66.9145ZM24.557 4.68368C22.0146 8.81929 20.1293 13.3244 18.9684 18.0381H8.08737C12.0872 12.0127 17.8331 7.35377 24.5551 4.68557L24.557 4.68368ZM8.08737 56.9621H18.9665C20.1269 61.6759 22.012 66.181 24.5544 70.3165C17.8326 67.6474 12.087 62.9879 8.08737 56.9621Z" fill="#687C94"/>
<path d="M25.974 39.5178L23.7727 32.8324H21.9246L19.7101 39.5178L17.7126 32.8324H15.8506L18.8132 42.1678H20.498L22.8487 35.2381L25.186 42.1678H26.8848L29.8329 32.8324H27.9715L25.974 39.5178Z" fill="#F6376D"/>
<path d="M39.8442 42.1678H41.5423L44.4911 32.8324H42.629L40.6322 39.5178L38.4309 32.8324H36.5828L34.3676 39.5178L32.3708 32.8324H30.5088L33.4708 42.1678H35.1563L37.5069 35.2381L39.8442 42.1678Z" fill="#F6376D"/>
<path d="M49.8145 42.1678L52.1645 35.2381L54.5018 42.1678H56.2005L59.1493 32.8324H57.2872L55.2898 39.5178L53.0885 32.8324H51.2404L49.0258 39.5178L47.0284 32.8324H45.167L48.129 42.1678H49.8145Z" fill="#F6376D"/>
</svg>

<svg width="75" height="75" fill="none" xmlns="http://www.w3.org/2000/svg"><path d="M69.772 56.567c.087-.102.155-.22.2-.346a37.364 37.364 0 000-37.442 1.087 1.087 0 00-.2-.346A37.658 37.658 0 0047.92 1.487a1.093 1.093 0 00-.293-.086 37.305 37.305 0 00-20.254 0c-.1.014-.197.042-.29.082a37.654 37.654 0 00-21.855 16.95c-.087.102-.155.22-.2.346a37.363 37.363 0 000 37.442c.045.127.113.244.2.346a37.654 37.654 0 0021.835 16.944c.097.044.2.073.305.087a37.308 37.308 0 0020.26 0c.11-.014.217-.044.319-.09a37.658 37.658 0 0021.825-16.94zm-31.164 16.19V56.962h15.134c-1.645 6.02-4.013 11.02-6.893 14.557a35.15 35.15 0 01-8.241 1.238zm-10.457-1.24c-2.88-3.535-5.248-8.535-6.893-14.556h15.134v15.795a35.156 35.156 0 01-8.241-1.238zM2.243 38.608H7.12v8.703a1.108 1.108 0 001.108 1.108h9.06a72.678 72.678 0 001.14 6.329H6.733a35.04 35.04 0 01-4.49-16.14zm4.494-18.355h11.69a72.238 72.238 0 00-1.138 6.33H8.228A1.108 1.108 0 007.12 27.69v8.702H2.243a35.04 35.04 0 014.491-16.139l.003-.001zM36.392 2.243v15.795H21.258c1.645-6.019 4.013-11.02 6.893-14.557a35.154 35.154 0 018.241-1.238zm10.457 1.24c2.88 3.535 5.248 8.535 6.893 14.556H38.608V2.243c2.786.085 5.553.501 8.241 1.24zm25.908 32.91H67.88V27.69a1.108 1.108 0 00-1.108-1.108h-9.06a72.678 72.678 0 00-1.14-6.329h11.694a35.04 35.04 0 014.49 16.14zm-4.494 18.355h-11.69a72.238 72.238 0 001.138-6.329h9.061a1.11 1.11 0 001.108-1.109v-8.702h4.877a35.04 35.04 0 01-4.491 16.139l-.003.001zm-29.658 0V48.42h16.87a68.967 68.967 0 01-1.179 6.33h-15.69zm-29.27-8.545V28.798h56.33v17.405H9.335zm46.14-19.62H38.608v-6.33h15.69c.48 2.038.875 4.158 1.177 6.33zm-19.084-6.33v6.33H19.525c.303-2.172.697-4.291 1.179-6.33H36.39zM19.525 48.418h16.867v6.329h-15.69a69.173 69.173 0 01-1.177-6.33zm30.922 21.899a46.897 46.897 0 005.588-13.355h10.88a35.474 35.474 0 01-16.47 13.352l.002.003zm16.468-52.279H56.033a46.938 46.938 0 00-5.588-13.354 35.48 35.48 0 0116.468 13.354h.002zM24.557 4.684a46.928 46.928 0 00-5.589 13.354H8.088A35.475 35.475 0 0124.554 4.686l.002-.002zM8.087 56.962h10.88a46.91 46.91 0 005.587 13.355A35.48 35.48 0 018.087 56.962z" fill="#687C94"/><path d="M25.974 39.518l-2.201-6.686h-1.848l-2.215 6.686-1.997-6.686H15.85l2.962 9.336h1.685l2.35-6.93 2.338 6.93h1.699l2.948-9.336h-1.861l-1.998 6.686zM39.844 42.168h1.698l2.95-9.336h-1.863l-1.997 6.686-2.201-6.686h-1.848l-2.215 6.686-1.997-6.686h-1.862l2.962 9.336h1.685l2.35-6.93 2.338 6.93zM49.815 42.168l2.35-6.93 2.337 6.93H56.2l2.95-9.336h-1.863l-1.997 6.686-2.201-6.686H51.24l-2.214 6.686-1.998-6.686h-1.861l2.962 9.336h1.686z" fill="#F6376D"/></svg>
